eladmin-web/src/assets/icons/svg/role.svg

<svg xmlns="http://www.w3.org/2000/svg" xmlns:xlink="http://www.w3.org/1999/xlink" width="200" height="200" class="icon" p-id="2866" t="1543477186503" version="1.1" viewBox="0 0 1024 1024"><defs><style type="text/css">@font-face{font-family:rbicon;src:url(chrome-extension://dipiagiiohfljcicegpgffpbnjmgjcnf/fonts/rbicon.woff2) format(&quot;woff2&quot;);font-weight:400;font-style:normal}</style></defs><path d="M609.093716 908.277839c0-106.125689 85.803749-191.929438 191.929438-191.929438 38.950386 0 75.07828 11.854465 105.561191 31.611907l0-3.38699c0-60.965821-71.69129-136.044101-128.705623-145.076075l76.771775-127.012128-178.945976 0c32.176406-46.288864 53.627343-107.254686 53.627343-174.994487 0-5.080485 0-10.725469 0-15.805954 69.433297-12.418964 114.593164-32.176406 114.593164-51.933848 0-21.450937-50.240353-41.208379-127.012128-53.627343C712.961411 158.059537 661.592062 11.289967 600.62624 11.289967c-27.095921 0-48.546858 14.112459-62.659316 35.563396 0 10.725469-10.725469 21.450937-24.837927 21.450937-12.418964 0-23.144432-9.031974-24.837927-19.757442C475.307607 27.660419 452.163175 11.289967 425.631753 11.289967 366.359427 11.289967 311.038589 145.640573 298.619625 179.510474 232.573319 191.929438 189.671444 209.993385 189.671444 231.444322c0 21.450937 44.595369 39.514884 114.593164 51.933848 0 5.080485 0 10.725469 0 15.805954 0 67.739802 19.757442 128.705623 53.627343 174.994487L178.945976 474.178611l76.771775 125.318633c-57.014333 0-132.092613 78.46527-132.092613 146.76957l1.693495 205.477398c0 33.869901 26.531422 60.965821 60.965821 60.965821l453.85667 0C620.383682 982.227122 609.093716 946.663727 609.093716 908.277839zM468.533627 962.46968l-28.789416 0-53.627343-395.148842 112.335171 98.222712L468.533627 962.46968zM498.45204 351.117971c-7.338479 62.659316-39.514884 76.771775-57.014333 76.771775-42.901874 0-55.320838-57.014333-57.014333-76.771775l-14.112459 0L370.310915 338.699008l0-12.418964 107.254686 0L477.565601 338.699008l71.69129 0 0-12.418964 107.254686 0L656.511577 338.699008l3.38699 0 0 12.418964-14.112459 0c0 0-9.031974 76.771775-57.014333 76.771775C539.660419 427.889746 530.628445 351.117971 530.628445 351.117971L498.45204 351.117971zM562.804851 962.46968l-30.482911-296.92613 112.335171-99.916207-53.627343 396.842337L562.804851 962.46968z" p-id="2867"/><path d="M918.438809 907.148842c0 1.693495-1.128997 2.822492-2.822492 2.822492l-97.658214 0 0 97.658214c0 1.693495-1.128997 2.822492-2.822492 2.822492l-43.466373 0c-1.693495 0-2.822492-1.128997-2.822492-2.822492l0-97.658214-97.658214 0c-1.693495 0-2.822492-1.128997-2.822492-2.822492L668.366042 863.68247c0-1.693495 1.128997-2.822492 2.822492-2.822492l97.658214 0 0-97.658214c0-1.693495 1.128997-2.822492 2.822492-2.822492l43.466373 0c1.693495 0 2.822492 1.128997 2.822492 2.822492l0 97.658214 97.658214 0c1.693495 0 2.822492 1.128997 2.822492 2.822492L918.438809 907.148842z" p-id="2868"/></svg>

<svg xmlns="http://www.w3.org/2000/svg" width="200" height="200" class="icon" viewBox="0 0 1024 1024"><defs><style>@font-face{font-family:rbicon;src:url(chrome-extension://dipiagiiohfljcicegpgffpbnjmgjcnf/fonts/rbicon.woff2) format(&quot;woff2&quot;);font-weight:400;font-style:normal}</style></defs><path d="M609.094 908.278c0-106.126 85.803-191.93 191.93-191.93 38.95 0 75.077 11.855 105.56 31.612v-3.387c0-60.966-71.69-136.044-128.705-145.076l76.771-127.012H675.705c32.176-46.289 53.627-107.255 53.627-174.994v-15.806c69.433-12.42 114.593-32.177 114.593-51.934 0-21.451-50.24-41.209-127.012-53.628C712.96 158.06 661.593 11.29 600.626 11.29c-27.096 0-48.547 14.112-62.66 35.563 0 10.726-10.725 21.451-24.837 21.451-12.419 0-23.144-9.032-24.838-19.757-12.983-20.887-36.128-37.257-62.66-37.257-59.272 0-114.592 134.35-127.011 168.22-66.047 12.42-108.949 30.483-108.949 51.934 0 21.451 44.596 39.515 114.594 51.934v15.806c0 67.74 19.757 128.706 53.627 174.995H178.946l76.772 125.318c-57.015 0-132.093 78.466-132.093 146.77l1.694 205.477c0 33.87 26.531 60.966 60.965 60.966h453.857c-19.757-30.483-31.047-66.046-31.047-104.432zm-140.56 54.192h-28.79l-53.627-395.15 112.335 98.224-29.918 296.926zm29.918-611.352c-7.338 62.66-39.515 76.772-57.014 76.772-42.902 0-55.321-57.015-57.015-76.772h-14.112V326.28h107.255v12.419h71.69V326.28h107.256v12.419h3.387v12.419h-14.113s-9.032 76.772-57.014 76.772c-49.112 0-58.144-76.772-58.144-76.772h-32.176zm64.353 611.352l-30.483-296.926 112.335-99.917L591.03 962.47h-28.225z"/><path d="M918.439 907.149c0 1.693-1.13 2.822-2.823 2.822h-97.658v97.659c0 1.693-1.129 2.822-2.822 2.822h-43.467c-1.693 0-2.822-1.129-2.822-2.822V909.97h-97.658c-1.694 0-2.823-1.129-2.823-2.822v-43.467c0-1.693 1.129-2.822 2.823-2.822h97.658v-97.658c0-1.694 1.129-2.823 2.822-2.823h43.467c1.693 0 2.822 1.13 2.822 2.823v97.658h97.658c1.694 0 2.823 1.129 2.823 2.822v43.467z"/></svg>
